X:1
T: Sarah Chi-Mei Lo
C:Bruce Shawyer
R:Jig
Q:180
K:A
M:6/8
L:1/16
c2A2c2 c4A2|d2B2d2 d4B2|c2A2c2 c4A2|B4E2 E6|c2A2c2 c4A2|d4f2 f6|e2c2A2 A2B2c2|B6 A6|
c2A2c2 c4A2|d2B2d2 d4B2|c2A2c2 c4A2|B4E2 E6|c2A2c2 c4A2|d4f2 f6|e2c2A2 A2B2c2|B6 A6|
f6 f2e2d2|e2d2c2 c2d2e2|f4B2 B4c2|d6 f6|e2f2g2 a2g2f2|e2f2g2 a6|a4A2 A4c2|B6 A6|
f6 f2e2d2|e2d2c2 c2d2e2|f4B2 B4c2|d6 f6|e2f2g2 a2g2f2|e2f2g2 a6|a4A2 A4c2|B6 A6||
